svgs/dialer.svg

<svg width="192" height="192" viewBox="0 0 192 192" fill="none" xmlns="http://www.w3.org/2000/svg"><path d="M37.231 22c-8.837 0-16.091 7.185-15.148 15.97 3.7 34.49 19.25 65.435 42.496 88.682 23.246 23.246 54.189 38.795 88.679 42.496 8.786.943 15.973-6.312 15.973-15.148v-16.096a16 16 0 0 0-11.402-15.326l-19.446-3.832a16 16 0 0 0-15.91 4.012l-9.681 9.681a124.373 124.373 0 0 1-31.243-22.757 124.374 124.374 0 0 1-22.757-31.243l9.681-9.681a16.001 16.001 0 0 0 4.012-15.912l-3.834-19.444A15.999 15.999 0 0 0 53.327 22H37.23Z" stroke="#000" stroke-width="12" stroke-linejoin="round"/></svg>

<?xml version="1.0" encoding="UTF-8" standalone="no"?><svg xmlns:android="http://schemas.android.com/apk/res/android" height="192" width="192" xmlns="http://www.w3.org/2000/svg">
  <path d="M37.231,22C28.395,22 21.14,29.185 22.083,37.971C25.783,72.461 41.332,103.405 64.579,126.652C87.825,149.898 118.768,165.447 153.258,169.148C162.044,170.091 169.231,162.836 169.231,154V137.904C169.231,130.839 164.597,124.608 157.829,122.578L138.383,118.746C132.746,117.055 126.635,118.596 122.473,122.758L112.792,132.439C101.202,126.504 90.668,118.801 81.549,109.682C72.43,100.563 64.726,90.029 58.792,78.439L68.473,68.758C72.635,64.596 74.176,58.484 72.485,52.846L68.651,33.402C66.621,26.635 60.393,22 53.327,22H37.231Z" fill="#000000" fill-opacity="0.0" stroke="#000000" stroke-linejoin="round" stroke-width="12"/>
</svg>
